static/images/icons/unibit.svg

<?xml version="1.0" encoding="UTF-8"?>
<svg width="62px" height="42px" viewBox="0 0 62 42" version="1.1" xmlns="http://www.w3.org/2000/svg" xmlns:xlink="http://www.w3.org/1999/xlink">
    <!-- Generator: Sketch 55.2 (78181) - https://sketchapp.com -->
    <title>Untitled 2</title>
    <desc>Created with Sketch.</desc>
    <defs>
        <linearGradient x1="54.3724798%" y1="29.8314947%" x2="17.6983009%" y2="82.5541817%" id="linearGradient-1">
            <stop stop-color="#FD3E71" offset="0%"></stop>
            <stop stop-color="#F304CA" offset="99.9472128%"></stop>
        </linearGradient>
    </defs>
    <g id="Page-1" stroke="none" stroke-width="1" fill="none" fill-rule="evenodd">
        <g id="unibit" fill-rule="nonzero">
            <g id="Clip-20" fill="#3EB0FD">
                <path d="M3.02403171,15.3447289 C0.998916094,16.5001572 -0.17545079,18.7547225 0.0213891141,21.1097388 L0.0213891141,21.3865713 C-0.150190463,23.7716743 1.07040758,26.0369156 3.1384181,27.170992 L28.3987447,41.2433424 C30.1917513,42.2522192 32.3684289,42.2522192 34.1609589,41.2433424 L58.9446756,27.170992 C60.9812298,26.0141079 62.1679886,23.7537193 61.9806808,21.3865713 L61.9806808,21.1097388 C62.1570265,18.7653985 60.9869491,16.5283029 58.9780383,15.3689924 L34.1943216,0.810886498 C33.2739878,0.270295499 32.2459401,0 31.2183691,0 C30.2065262,0 29.1946833,0.262045906 28.2843583,0.786622988 L3.02403171,15.3447289 Z" id="path-2"></path>
            </g>
            <path d="M16.9858068,19.7485124 C16.6715455,19.5671206 16.4126858,19.2970262 16.2393167,18.9691256 C15.7282838,18.0058554 16.0626044,16.7934205 16.9858068,16.2602083 L30.2986511,8.26685527 C30.8899209,7.91104824 31.6177846,7.91104824 32.2090544,8.26685527 L45.0442978,16.2950914 C45.9579482,16.8457451 46.2712543,18.0646582 45.743983,19.0184602 C45.2167117,19.9722622 44.0480224,20.2991662 43.1338944,19.7485124 L31.2443007,12.3083048 L21.8191273,18.0043604 L32.1803983,24.2535614 C33.1036008,24.7957435 33.4307573,26.0161516 32.9111276,26.9789236 C32.5586582,27.6327314 31.9081659,28 31.2380919,28 C30.9195321,28 30.5961964,27.9162807 30.2986511,27.7418655 L16.9858068,19.7485124 Z" id="Path" fill="#FFFFFF" transform="translate(31.000000, 18.000000) rotate(180.000000) translate(-31.000000, -18.000000) "></path>
        </g>
    </g>
</svg>

<svg height="42" viewBox="0 0 62 42" width="62" xmlns="http://www.w3.org/2000/svg" xmlns:xlink="http://www.w3.org/1999/xlink"><linearGradient id="a" x1="54.37248%" x2="17.71766%" y1="29.831495%" y2="82.526351%"><stop offset="0" stop-color="#373737"/><stop offset="1"/></linearGradient><g fill="none"><path d="m3.02403171 15.3447289c-2.02511562 1.1554283-3.1994825 3.4099936-3.0026426 5.7650099v.2768325c-.17157957 2.385103 1.04901847 4.6503443 3.11702899 5.7844207l25.2603266 14.0723504c1.7930066 1.0088768 3.9696842 1.0088768 5.7622142 0l24.7837167-14.0723504c2.0365542-1.1568841 3.223313-3.4172727 3.0360052-5.7844207v-.2768325c.1763457-2.3443403-.9937317-4.5814359-3.0026425-5.7407464l-24.7837167-14.5581059c-.9203338-.540591-1.9483815-.8108865-2.9759525-.8108865-1.0118429 0-2.0236858.26204591-2.9340108.78662299z" fill="url(#a)"/><path d="m16.9858068 19.7485124c-.3142613-.1813918-.573121-.4514862-.7464901-.7793868-.5110329-.9632702-.1767123-2.1757051.7464901-2.7089173l13.3128443-7.99335303c.5912698-.35580703 1.3191335-.35580703 1.9104033 0l12.8352434 8.02823613c.9136504.5506537 1.2269565 1.7695668.6996852 2.7233688s-1.6959606 1.280706-2.6100886.7300522l-11.8895937-7.4402076-9.4251734 5.6960556 10.361271 6.249201c.9232025.5421821 1.250359 1.7625902.7307293 2.7253622-.3524694.6538078-1.0029617 1.0210764-1.6730357 1.0210764-.3185598 0-.6418955-.0837193-.9394408-.2581345z" fill="#fff" transform="matrix(-1 0 0 -1 62 36)"/></g></svg>
